static/assets/img/icons/theme/tools/hummer-2.svg

<svg height="24" viewBox="0 0 24 24" width="24" xmlns="http://www.w3.org/2000/svg"><g fill="none" fill-rule="evenodd"><path d="m0 0h24v24h-24z" opacity="0"/><g fill="#000"><path d="m3.51471863 18.6568542 9.89949497-9.89949489c.3905243-.39052429 1.0236892-.39052429 1.4142135 0l1.4142136 1.41421359c.3905243.3905243.3905243 1.0236892 0 1.4142135l-9.89949495 9.899495c-.39052429.3905243-1.02368927.3905243-1.41421356 0l-1.41421356-1.4142136c-.3905243-.3905243-.3905243-1.0236893 0-1.4142136z" opacity=".3"/><path d="m9.87867966 6.63603897 3.53553394-3.53553391c.3905243-.39052429 1.0236892-.39052429 1.4142135 0l7.0710678 7.07106784c.3905243.3905243.3905243 1.0236892 0 1.4142135l-3.5355339 3.5355339c-.3905243.3905243-1.0236892.3905243-1.4142135 0l-7.07106784-7.07106777c-.3905243-.39052429-.3905243-1.02368927 0-1.41421356z"/><path d="m17.3033009 4.86827202.7071067-.70710678c.1952622-.19526215.5118447-.19526215.7071068 0l2.1213204 2.12132034c.1952621.19526214.1952621.51184463 0 .70710678l-.7071068.70710678c-.1952622.19526215-.5118447.19526215-.7071068 0l-2.1213203-2.12132034c-.1952622-.19526215-.1952622-.51184464 0-.70710678z" opacity=".3"/></g></g></svg>

<svg width="24px" height="24px" viewBox="0 0 24 24" version="1.1" xmlns="http://www.w3.org/2000/svg" xmlns:xlink="http://www.w3.org/1999/xlink">
    <title>Icon For Hummer#2</title>
    <g stroke="none" stroke-width="1" fill="none" fill-rule="evenodd">
        <rect opacity="0" x="0" y="0" width="24" height="24"></rect>
        <path d="M3.51471863,18.6568542 L13.4142136,8.75735931 C13.8047379,8.36683502 14.4379028,8.36683502 14.8284271,8.75735931 L16.2426407,10.1715729 C16.633165,10.5620972 16.633165,11.1952621 16.2426407,11.5857864 L6.34314575,21.4852814 C5.95262146,21.8758057 5.31945648,21.8758057 4.92893219,21.4852814 L3.51471863,20.0710678 C3.12419433,19.6805435 3.12419433,19.0473785 3.51471863,18.6568542 Z" fill="#000000" opacity="0.3"></path>
        <path d="M9.87867966,6.63603897 L13.4142136,3.10050506 C13.8047379,2.70998077 14.4379028,2.70998077 14.8284271,3.10050506 L21.8994949,10.1715729 C22.2900192,10.5620972 22.2900192,11.1952621 21.8994949,11.5857864 L18.363961,15.1213203 C17.9734367,15.5118446 17.3402718,15.5118446 16.9497475,15.1213203 L9.87867966,8.05025253 C9.48815536,7.65972824 9.48815536,7.02656326 9.87867966,6.63603897 Z" fill="#000000"></path>
        <path d="M17.3033009,4.86827202 L18.0104076,4.16116524 C18.2056698,3.96590309 18.5222523,3.96590309 18.7175144,4.16116524 L20.8388348,6.28248558 C21.0340969,6.47774772 21.0340969,6.79433021 20.8388348,6.98959236 L20.131728,7.69669914 C19.9364658,7.89196129 19.6198833,7.89196129 19.4246212,7.69669914 L17.3033009,5.5753788 C17.1080387,5.38011665 17.1080387,5.06353416 17.3033009,4.86827202 Z" fill="#000000" opacity="0.3"></path>
    </g>
</svg>
